icons/moon-24.svg

<svg xmlns="http://www.w3.org/2000/svg" width="24" height="24" viewBox="0 0 24 24"><path d="M14.768 3.96v.001l-.002-.005a9.08 9.08 0 00-.218-.779c-.13-.394.21-.8.602-.67.29.096.575.205.855.328l.01.005A10.002 10.002 0 0112 22a10.002 10.002 0 01-9.162-5.985l-.004-.01a9.722 9.722 0 01-.329-.855c-.13-.392.277-.732.67-.602.257.084.517.157.78.218l.004.002A9 9 0 0014.999 6a9.09 9.09 0 00-.231-2.04zM16.5 6c0 5.799-4.701 10.5-10.5 10.5-.426 0-.847-.026-1.26-.075A8.5 8.5 0 1016.425 4.74c.05.413.075.833.075 1.259z"/></svg>

<svg xmlns="http://www.w3.org/2000/svg" width="24" height="24" viewBox="0 0 24 24">
  <defs/>
  <path d="M14.768,3.96 L14.768,3.961 L14.766,3.956 C14.705,3.693 14.632,3.433 14.548,3.177 C14.418,2.783 14.758,2.377 15.15,2.507 C15.44,2.603 15.725,2.712 16.005,2.835 L16.015,2.84 C20.347,4.742 22.753,9.419 21.783,14.049 C20.813,18.68 16.731,21.997 12,22 C8.029,22.001 4.433,19.652 2.838,16.015 L2.834,16.005 C2.711,15.725 2.601,15.44 2.505,15.15 C2.375,14.758 2.782,14.418 3.175,14.548 C3.432,14.632 3.692,14.705 3.955,14.766 L3.959,14.768 C6.634,15.39 9.446,14.758 11.596,13.05 C13.747,11.342 15,8.746 14.999,6 C14.999,5.313 14.922,4.629 14.768,3.96 Z M16.5,6 C16.5,11.799 11.799,16.5 6,16.5 C5.574,16.5 5.153,16.474 4.74,16.425 C6.576,19.43 10.075,20.992 13.539,20.352 C17.002,19.711 19.711,17.002 20.352,13.539 C20.992,10.075 19.43,6.576 16.425,4.74 C16.475,5.153 16.5,5.573 16.5,5.999 Z"/>
</svg>
